X:1
T:Hereford (Wesley), LM
T:Samuel Sebastian Wesley, 1872
T:Hereford (Wesley), LM
T:Public Domain
C:Samuel Sebastian Wesley, 1872
Z:Public Domain
%%score ( 1 2 ) ( 3 4 )
L:1/8
M:3/4
K:F
V:1 treble 
V:2 treble 
V:3 bass 
V:4 bass 
V:1
 [FA]2 | ([FA]2 [EG]2) F2 | ([DG]2 [EB]2) [FA]2 | (AG [CF]2) [EG]2 | ([EG]2 [FA]2) [Gc]2 | %5
 (c2 B2) [FA]2 | (F2 G2) [Ac]2 | ([DB]2 [Gc]2) [FA]2 | ([FA]2 [EG]2) [Gc]2 | (A2 G2) d2 | %10
 ([Gc]2 fe) (dc) | (c2 BA) [EB]2 | ([EB]2 [FA]2) [Gc]2 | ([Fc]2 F2) [FB]2 | (B2 AG) [Fc]2 | %15
 (F->[F-G] [FA]2) [EG]2 | ([EG]2 F2) |] %17
V:2
 x2 | x4 F2 | x6 | D2 x4 | x6 | F4 x2 | d4 x2 | x6 | x6 | d4 d2 | x2 F2 F2 | F4 x2 | x6 | x6 | %14
 E4 x2 | x6 | x2 F2 |] %17
V:3
 [F,C]2 | (C2 B,2) [D,A,]2 | ([B,,D]2 [G,,B,]2) [A,,C]2 | (CB, A,2) C2 | [F,C]4 [E,C]2 | %5
 [D,F]4 [C,C]2 | (D2 E2) [A,,F]2 | [G,,D]2 E,2 F,2 | [C,C]4 [CE]2 | [CF]2 G2 F2 | %10
 ([B,E]2 [A,F]2) [D,F]2 | [G,D]4 [C,C]2 | [F,C]4 [E,C]2 | [D,F]4 [G,D]2 | (C,2 B,,2) [A,,C]2 | %15
 ([B,,D]2 C2) B,2 | (B,2 A,2) |] %17
V:4
 x2 | C,4 x2 | x6 | B,,2 C,4 | x6 | x6 | B,,4 x2 | x2 C4 | x6 | x2 B,4 | x6 | x6 | x6 | x6 | %14
 C4 x2 | x2 C,4 | F,,4 |] %17

